usr/share/icons/biglinux-icons-material/24/places/user-trash.svg

<svg width="24" height="24" version="1.1" xmlns="http://www.w3.org/2000/svg">
 <defs>
  <style id="current-color-scheme" type="text/css">.ColorScheme-Text { color:#dedede; }</style>
 </defs>
 <path class="ColorScheme-Text" d="m10 4c-0.554 0-1 0.446-1 1v1h-4v1h1v12c0 0.554 0.446 1 1 1h9c0.554 0 1-0.446 1-1v-12h1v-1h-4v-1c0-0.554-0.446-1-1-1zm0 1h3v1h-3zm-3 2h9v12h-9zm2 2v8h1v-8zm2 0v8h1v-8zm2 0v8h1v-8z" fill="currentColor"/>
</svg>

<svg xmlns="http://www.w3.org/2000/svg" width="24" height="24"><path fill="currentColor" d="M10 4c-.554 0-1 .446-1 1v1H5v1h1v12c0 .554.446 1 1 1h9c.554 0 1-.446 1-1V7h1V6h-4V5c0-.554-.446-1-1-1zm0 1h3v1h-3zM7 7h9v12H7zm2 2v8h1V9zm2 0v8h1V9zm2 0v8h1V9z" style="color:#dedede"/></svg>
